X:1
T:Jesu Hail! O God Most Holy
T:John Stainer
T:Jesu Hail! O God Most Holy
T:Public Domain
T:Public Domain
C:John Stainer
Z:Public Domain
%%score ( 1 2 ) ( 3 4 )
L:1/8
M:2/4
K:Eb
V:1 treble 
V:2 treble 
V:3 bass 
V:4 bass 
V:1
 [B,E]2 [DF]2 | [EB]2 [EA]2 | [EG]2 [DF]2 | [DF]2 E2 | [CF]3 [=EG] | [FA]2 [Ec]2 | [DB]2 [DA]2 | %7
w: 1.~Je- su|hail! O|God most|ho- ly,|tle Lamb,|an In-|fant low-|
w: 2.~To en-|rich my|de- so-|la- tion,|re- deem|me from|dam- na-|
w: 3.~Low a-|based, where|brutes are|sleep- ing,|be- lov-|èd Son|is weep-|
w: 4.~Je- su,|Thine my|heart is|sole- ly;|it, take|it to|Thee whol-|
w: 5.~Hence let|i- dle|fan- cies|van- ish,|all e-|vil pas-|sions ban-|
 [DA]2 [EG]2 | [GB]2 [Gc]2 | [Gd]3 [Gd] | [Gd]2 [=Ac]2 | [GB]2 [^F=A]2 | [^Fe]2 [Gd]2 | %13
w: ly; Born,|great God,|a hu-|man strang-|er, Laid|with- in|
w: tion, Wrapt|in swath-|ing bands|Thou li-|est, Thou|in want|
w: ing; Judge|su- preme,|true God-|head shar-|ing, Sin-|ner’s like-|
w: ly; With|Thy sac-|red fire|il- lume|me, Let|it in-|
w: ish; Make|me like|Thy- self|in meek-|ness, Bind|to Thee|
 [=Ac]2 [GB]2 | [GB]2 [^F=A]2 x | G2 G2 ||"^Refrain" [EG]3 [DF] | [CE]2 [CE]2 | [FA]3 [EG] x | %19
w: the nar-|row man-|ger: *||||
w: and weak-|ness sigh-|est: *||||
w: ness for|us wear-|ing! *||||
w: ward- ly|con- sume|me. *||||
w: my hu-|man weak-|ness, *||||
 [EG]2 [DF]2 | [EB]2 [EB]2 | [EG]2 E2 | E2 z B x | (B2 A2) | [Fc]2 [Fc]2 | [F=B]2 [Fc]2 | %26
w: |||||||
w: |||||||
w: |||||||
w: |||||||
w: |||||||
 [Fd]2 [FG]2 | [Ee]2 [Ae]2 | [Ge]4 | ([EG]2 [DF]2) | E4 | [Ge]4 | (g2 z A) x | [Ge]4 |] %34
w: ||||||||
w: ||||||||
w: ||||||||
w: ||||||||
w: ||||||||
V:2
 x4 | x4 | x4 | x2 E2 | x4 | x4 | x4 | x4 | x4 | x4 | x4 | x4 | x4 | x4 | x5 | G2 G2 || x4 | x4 | %18
w: |||Gen-|||||||||||||||
w: |||To|||||||||||||||
w: |||God’s|||||||||||||||
w: |||Draw|||||||||||||||
w: |||Hence|||||||||||||||
 x5 | x4 | x4 | x2 E2 | d3 =E2 | F4 | x4 | x4 | x4 | x4 | x4 | x4 | E4 | x4 | B3 f2 | x4 |] %34
w: ||||||||||||||||
w: ||||||||||||||||
w: ||||||||||||||||
w: ||||||||||||||||
w: ||||||||||||||||
V:3
 [E,G,]2 [E,A,]2 | [E,G,]2 [C,A,]2 | [B,,B,]2 [B,,A,]2 | [C,A,]2 [C,G,]2 | [A,C]3 [G,B,] | %5
w: ~ ~|~ ~|~ ~|~ ~|~ ~|
 [F,A,]2 [A,,G,]2 | [B,,F,]2 [B,,B,]2 | [E,B,]2 [E,B,]2 | [E,G,]2 [E,=A,]2 | [B,,B,]3 [B,,B,] | %10
w: ~ ~|~ ~|~ ~|~ ~|~ ~|
 [C,E]2 [C,E]2 | [D,D]2 [D,D]2 | [=A,,C]2 [A,,D]2 | [C,E]2 [C,E]2 | D,2 z C x | [G,B,]2 [G,B,]2 || %16
w: ~ ~|~ ~|~ ~|~ ~|~ ~|* ~|
 [E,B,]3 [E,B,] | [A,C]2 [A,C]2 | F,2 (z C) x | B,2 [A,B,]2 | [G,B,]2 [G,B,]2 | C2 C2 | %22
w: Might tran-|scend- ing,|weak- *|* ing,|ness ben-|ding from|
 [A,C]2 [G,C]2 x | [F,C]4 | [A,C]2 [A,C]2 | [A,D]2 [A,C]2 | [G,=B,]2 [G,B,]2 | C2 [CE]2 | [B,E]4 | %29
w: Love un-|end-|ing, man|be- friend-|ing, God|most High,|most|
 (B,2 A,2) | [E,G,]4 | [B,E]4 | (E2 D2) x | [E,E]4 |] %34
w: High. *|||||
V:4
 x4 | x4 | x4 | x4 | x4 | x4 | x4 | x4 | x4 | x4 | x4 | x4 | x4 | x4 | D3 D,2 | x4 || x4 | x4 | %18
w: ||||||||||||||~ ~||||
 C3 F,2 | B,2 x2 | x4 | C2 C2 | x5 | x4 | x4 | x4 | x4 | C2 x2 | x4 | B,,4 | x4 | x4 | B,,4 x | %33
w: ness blend-|Great-||the sky;||||||God||||||
 x4 |] %34
w: |

